src/lib/packages/icons/src/assets/line/cloud-connection.svg

<svg width="24" height="24" viewBox="0 0 24 24" fill="none" xmlns="http://www.w3.org/2000/svg">
<path d="M16 15.75C19.171 15.75 21.75 13.171 21.75 10C21.75 6.829 19.171 4.25 16 4.25C15.794 4.25 15.5931 4.26001 15.3921 4.28101C15.0721 3.83401 14.7031 3.42402 14.2881 3.05902C12.9641 1.89302 11.264 1.25098 9.5 1.25098C5.502 1.25098 2.25 4.50298 2.25 8.50098C2.25 12.499 5.502 15.751 9.5 15.751H11.25V17.368C10.339 17.628 9.62694 18.34 9.36694 19.251H5C4.586 19.251 4.25 19.587 4.25 20.001C4.25 20.415 4.586 20.751 5 20.751H9.36694C9.69594 21.901 10.745 22.751 12 22.751C13.255 22.751 14.3041 21.901 14.6331 20.751H19C19.414 20.751 19.75 20.415 19.75 20.001C19.75 19.587 19.414 19.251 19 19.251H14.6331C14.3731 18.34 13.661 17.628 12.75 17.368V15.751H16V15.75ZM13.25 20C13.25 20.689 12.689 21.25 12 21.25C11.311 21.25 10.75 20.689 10.75 20C10.75 19.311 11.311 18.75 12 18.75C12.689 18.75 13.25 19.311 13.25 20ZM3.75 8.5C3.75 5.329 6.329 2.75 9.5 2.75C10.898 2.75 12.2469 3.25902 13.2959 4.18402C13.7239 4.56202 14.0931 4.99901 14.3931 5.48401C14.5551 5.74801 14.8619 5.88503 15.1689 5.82703C15.4449 5.77503 15.717 5.75 16 5.75C18.344 5.75 20.25 7.656 20.25 10C20.25 12.344 18.344 14.25 16 14.25H9.5C6.329 14.25 3.75 11.671 3.75 8.5Z" fill="currentColor"/>
</svg>

<svg xmlns="http://www.w3.org/2000/svg" width="24" height="24" fill="none"><path fill="currentColor" d="M16 15.75A5.756 5.756 0 0 0 21.75 10a5.756 5.756 0 0 0-6.358-5.719A7.24 7.24 0 0 0 9.5 1.251c-3.998 0-7.25 3.252-7.25 7.25s3.252 7.25 7.25 7.25h1.75v1.617a2.74 2.74 0 0 0-1.883 1.883H5a.75.75 0 0 0 0 1.5h4.367c.329 1.15 1.378 2 2.633 2 1.255 0 2.304-.85 2.633-2H19a.75.75 0 0 0 0-1.5h-4.367a2.74 2.74 0 0 0-1.883-1.883v-1.617H16v-.001ZM13.25 20c0 .689-.561 1.25-1.25 1.25s-1.25-.561-1.25-1.25.561-1.25 1.25-1.25 1.25.561 1.25 1.25ZM3.75 8.5A5.756 5.756 0 0 1 9.5 2.75c1.398 0 2.747.509 3.796 1.434.428.378.797.815 1.097 1.3a.745.745 0 0 0 .776.343A4.44 4.44 0 0 1 16 5.75 4.254 4.254 0 0 1 20.25 10 4.254 4.254 0 0 1 16 14.25H9.5A5.756 5.756 0 0 1 3.75 8.5Z"/></svg>
